static/fa/svgs/solid/radio.svg

<svg xmlns="http://www.w3.org/2000/svg" viewBox="0 0 512 512"><!--! Font Awesome Free 6.1.1 by @fontawesome - https://fontawesome.com License - https://fontawesome.com/license/free (Icons: CC BY 4.0, Fonts: SIL OFL 1.1, Code: MIT License) Copyright 2022 Fonticons, Inc.--><path d="M447.1 128H218.5l276.2-80.97c12.72-3.734 19.1-17.06 16.28-29.78-3.719-12.7-16.1-19.1-29.78-16.28L51.75 126.9C22.68 135.412 2.2 161.7.36 191.68L0 192v255.1c0 35.31 28.69 63.1 63.1 63.1h383.1c35.31 0 63.1-28.69 63.1-63.1V192c1.8-35.3-26-64-62.2-64zM80 248c0-4.406 3.594-7.1 7.1-7.1h111.1c4.406 0 7.1 3.594 7.1 7.1v15.1c0 4.406-3.594 7.1-7.1 7.1H87.1c-4.406 0-7.1-3.594-7.1-7.1V248zm128 143.1c0 4.406-3.594 7.1-7.1 7.1H89.8c-4.406 0-7.1-3.594-7.1-7.1V376c0-4.406 3.594-7.1 7.1-7.1h111.1c4.406 0 7.1 3.594 7.1 7.1v15.1zm16-64c0 4.406-3.594 7.1-7.1 7.1H72c-4.406 0-7.1-3.594-7.1-7.1v-16c0-4.406 3.594-7.1 7.1-7.1h143.1c4.406 0 7.1 3.594 7.1 7.1v16zm143.1 72c-44.16 0-80-35.84-80-79.1s35.84-80 80-80 79.1 35.85 79.1 80-34 79.1-79.1 79.1z"/></svg>

<svg xmlns="http://www.w3.org/2000/svg" viewBox="0 0 512 512"><!--! Font Awesome Free 6.1.1 by @fontawesome - https://fontawesome.com License - https://fontawesome.com/license/free (Icons: CC BY 4.0, Fonts: SIL OFL 1.1, Code: MIT License) Copyright 2022 Fonticons, Inc. --><path d="M447.1 128L218.5 128l276.2-80.97c12.72-3.734 19.1-17.06 16.28-29.78c-3.719-12.7-16.1-19.1-29.78-16.28L51.75 126.9c-29.07 8.512-49.55 34.8-51.39 64.78L.0007 192v255.1c0 35.31 28.69 63.1 63.1 63.1h383.1c35.31 0 63.1-28.69 63.1-63.1V192C511.1 156.7 483.3 128 447.1 128zM80 248c0-4.406 3.594-7.1 7.1-7.1h111.1c4.406 0 7.1 3.594 7.1 7.1V263.1c0 4.406-3.594 7.1-7.1 7.1h-111.1c-4.406 0-7.1-3.594-7.1-7.1V248zM208 391.1c0 4.406-3.594 7.1-7.1 7.1h-111.1c-4.406 0-7.1-3.594-7.1-7.1v-15.1c0-4.406 3.594-7.1 7.1-7.1h111.1c4.406 0 7.1 3.594 7.1 7.1V391.1zM224 327.1c0 4.406-3.594 7.1-7.1 7.1H72c-4.406 0-7.1-3.594-7.1-7.1V311.1c0-4.406 3.594-7.1 7.1-7.1h143.1c4.406 0 7.1 3.594 7.1 7.1V327.1zM367.1 399.1c-44.16 0-80-35.84-80-79.1s35.84-80 80-80s79.1 35.85 79.1 80S412.2 399.1 367.1 399.1z"/></svg>
